X: 3014
M: 3/4
L: 1/8
K: D
de |\
f2 f2 (ed) | e2 e2 fe |\
d2 d2 ef | A4 dc |\
g2 g2 (fe) |
f2 ef (AB) |\
d2 ef ed | e3 d B2 |\
dd AB AF | A3 B A2 |\
d2 df ed | f2 (e/f/g) fe |\
f2 fg ed | Hd4 |]


